img/burger.svg

<svg width="24" height="14" viewBox="0 0 24 14" fill="none" xmlns="http://www.w3.org/2000/svg">
<path d="M0.670044 0.131104H23.3329V2.41682H0.670044V0.131104ZM6.33577 5.84539H23.3329V8.1311H6.33577V5.84539ZM13.4179 11.5597H23.3329V13.8454H13.4179V11.5597Z" fill="#737373"/>
</svg>

<svg width="24" height="14" fill="none" xmlns="http://www.w3.org/2000/svg"><path d="M.67.131h22.663v2.286H.67V.13Zm5.666 5.714h16.997v2.286H6.336V5.845Zm7.082 5.715h9.915v2.285h-9.915V11.56Z" fill="#737373"/></svg>
